lib/brands/icons/google-cloud-functions.svg

<svg xmlns="http://www.w3.org/2000/svg" fill="none" aria-hidden="true" viewBox="0 0 48 48"><g id="google-cloud-functions-Icon"><g id="Group"><mask id="mask0_94_17567" width="36" height="34" x="6" y="7" maskUnits="userSpaceOnUse" style="mask-type:alpha"><g id="mask-2"><path id="Vector" fill="white" d="M41.5677 22.3421L34.171 9.47807C33.6051 8.47438 32.5501 7.84524 31.398 7.82437H16.6018C15.4496 7.84468 14.3944 8.47396 13.8288 9.47807L6.42932 22.3083C5.85689 23.3044 5.85689 24.5297 6.42932 25.5257L13.826 38.4629C14.3857 39.4808 15.4382 40.1309 16.599 40.1756H31.3952C32.556 40.1358 33.6103 39.4885 34.171 38.4713L41.5677 25.6073C42.1441 24.5952 42.1441 23.3542 41.5677 22.3421Z"/></g></mask><g mask="url(#mask0_94_17567)"><path id="Vector_2" fill="#4285F4" d="M41.5677 22.3421L34.171 9.47807C33.6051 8.47438 32.5501 7.84524 31.398 7.82437H16.6018C15.4496 7.84468 14.3944 8.47396 13.8288 9.47807L6.42932 22.3083C5.85689 23.3044 5.85689 24.5297 6.42932 25.5257L13.826 38.4629C14.3857 39.4808 15.4382 40.1309 16.599 40.1756H31.3952C32.556 40.1358 33.6103 39.4885 34.171 38.4713L41.5677 25.6073C42.1441 24.5952 42.1441 23.3542 41.5677 22.3421Z"/><path id="Vector_3" fill="black" d="M32.3204 19.7398L31.3006 20.852L31.5303 27.4611L30.5638 28.8619L30.0034 28.3016H30.5189V26.0098L28.0451 23.536L26.1752 24.4706L19.9736 18.2549L16.987 19.8546L16.6172 22.9533L17.665 28.6238L19.1835 30.1114L18.4915 31.0948L27.5263 40.3421H31.3006C32.4569 40.3024 33.7093 39.5446 34.2679 38.5313L40.4243 27.8433L32.3204 19.7398Z" opacity="0.07"/><path id="Vector_4" fill="white" d="M18.4914 31.0948L19.9734 29.6127L17.7517 27.391V20.4766L19.9734 18.2549L18.4914 16.7728L15.5244 19.7397V28.1278L18.4914 31.0948Z"/><path id="Vector_5" fill="white" d="M20.786 24.9844C21.3662 24.9844 21.8366 24.514 21.8366 23.9338C21.8366 23.3536 21.3662 22.8832 20.786 22.8832C20.2057 22.8832 19.7354 23.3536 19.7354 23.9338C19.7354 24.514 20.2057 24.9844 20.786 24.9844Z"/><path id="Vector_6" fill="white" d="M23.9295 24.9844C24.5098 24.9844 24.9801 24.514 24.9801 23.9338C24.9801 23.3536 24.5098 22.8832 23.9295 22.8832C23.3493 22.8832 22.8789 23.3536 22.8789 23.9338C22.8789 24.514 23.3493 24.9844 23.9295 24.9844Z"/><path id="Vector_7" fill="white" d="M27.0731 24.9844C27.6533 24.9844 28.1237 24.514 28.1237 23.9338C28.1237 23.3536 27.6533 22.8832 27.0731 22.8832C26.4928 22.8832 26.0225 23.3536 26.0225 23.9338C26.0225 24.514 26.4928 24.9844 27.0731 24.9844Z"/><path id="Vector_8" fill="white" d="M29.3532 16.7728L27.8711 18.2549L30.0928 20.4766V27.391L27.8711 29.6127L29.3532 31.0948L32.3201 28.1278V19.7397L29.3532 16.7728Z"/></g></g></g></svg>

<svg xmlns="http://www.w3.org/2000/svg" fill="none" aria-hidden="true" viewBox="0 0 48 48"><mask id="a" width="36" height="34" x="6" y="7" maskUnits="userSpaceOnUse" style="mask-type:alpha"><path fill="#fff" d="M41.568 22.342 34.17 9.478a3.251 3.251 0 0 0-2.773-1.654H16.602a3.248 3.248 0 0 0-2.773 1.654l-7.4 12.83a3.229 3.229 0 0 0 0 3.218l7.397 12.937a3.31 3.31 0 0 0 2.773 1.713h14.796a3.299 3.299 0 0 0 2.776-1.705l7.397-12.864a3.299 3.299 0 0 0 0-3.265Z"/></mask><g mask="url(#a)"><path fill="#4285F4" d="M41.568 22.342 34.17 9.478a3.251 3.251 0 0 0-2.773-1.654H16.602a3.248 3.248 0 0 0-2.773 1.654l-7.4 12.83a3.229 3.229 0 0 0 0 3.218l7.397 12.937a3.31 3.31 0 0 0 2.773 1.713h14.796a3.299 3.299 0 0 0 2.776-1.705l7.397-12.864a3.299 3.299 0 0 0 0-3.265Z"/><path fill="#000" d="m32.32 19.74-1.02 1.112.23 6.61-.966 1.4-.56-.56h.515V26.01l-2.474-2.474-1.87.935-6.201-6.216-2.987 1.6-.37 3.098 1.048 5.67 1.518 1.488-.692.984 9.035 9.247h3.775c1.156-.04 2.408-.797 2.967-1.81l6.156-10.689-8.104-8.103Z" opacity=".07"/><path fill="#fff" d="m18.491 31.095 1.482-1.482-2.221-2.222v-6.914l2.221-2.222-1.482-1.482-2.967 2.967v8.388l2.967 2.967Z"/><path fill="#fff" d="M20.786 24.984a1.05 1.05 0 1 0 0-2.1 1.05 1.05 0 0 0 0 2.1Zm3.144 0a1.05 1.05 0 1 0 0-2.1 1.05 1.05 0 0 0 0 2.1Zm3.143 0a1.05 1.05 0 1 0 0-2.1 1.05 1.05 0 0 0 0 2.1Z"/><path fill="#fff" d="m29.353 16.773-1.482 1.482 2.222 2.222v6.914l-2.222 2.222 1.482 1.482 2.967-2.967V19.74l-2.967-2.967Z"/></g></svg>
